!!!PDT:	1923
!!!LANG: Non-Tone
!!!LING_GROUP: Siouan
!!!REG: Dakotas
!!!COM: Anon.
!!!OTL: Song of the Leader of the Herd
!!!ODT: <1918//
!!!MPN: Bear-on-the-Flat
!!!MLC: Fort Berthold Reservation, North Dakota, United States of America
!! Song was recorded during either the summer of 1912, 1915, or 1918.
!!!AGN: monody
!!!SOCIAL_FUNCTION: Songs Connected With Legends and Folk-Tales
!!!AMT: irregular
!!!RWG: Transcribed pitches, durations, and meters are only approximate.
!! Drum Tempo: MM76
!! Drum-rhythm: (8^ 8) (8^ 8) (8^ 8) (8^ 8)
**kern
*ICvox
*Ifemale
*clefF4
*k[b-e-a-d-g-c-]
*M3/4
*MM76
=1-
16d-
16d-
8d-
16c-
16B-
*M2/4
=2
8d-
8d-
(12B-
12B-
12B-)
*M3/4
=3
[4B-
8B-]
16B-
16B-
8B-
16A-
16G-
*M2/4
=4
8B-
8B-
(12A-
12A-
12A-)
*M3/4
=5
[4A-
8A-]
16A-
16A-
8A-
16G-
16F
*M2/4
=6
8A-
8A-
(12G-
12E-
12E-)
*M3/4
=7
[4E-
8E-]
16E-
16E-
8E-
16E-
16E-
*M2/4
=8
8G-
8G-
(12G-
12E-
12E-)
=9
2E-
*M3/4
=10
8B-
8B-
8B-
8B-
8B-
8B-
*M2/4
=11
16G-
16B-
16B-
16B-
8B-
16A-
16G-
=12
8B-
8B-
[4A-
=13
8A-]
16A-
16A-
8A-
16G-
16F
=14
8A-
8A-
(12A-
12E-
12E-)
*M3/4
=15
[4E-
8E-]
16E-
16E-
8E-
16E-
16E-
*M2/4
=16
8G-
8G-
(12G-
12E-
12E-)
=17
2E-
==
*-
!!!CNT: Mandan
!!!TXO: Mandan
!!!OCY: United States
!!!OCL: Frances Densmore
!!!YOR: Frances Densmore, "Mandan and Hidatsa Music",
!!!YOR: Bulletin 80, page 86, No. 31
!!!PPR: Smithsonian Institution, Bureau of American Ethnology
!!!PPR: Government Printing Office
!!!PDT: 1923
!!!PPP: Washington, DC, United States of America
!!!YEC: Electronic Copyright 2000 David Huron
!!!YER: August 2000
!!!YEN: United States of America
!!!ENC: David Huron
!!!RDT: August 16, 2000
!!!EEV: Release 1.0
!!!AIN: tom, vox
